X: 231
M: 6/8
L: 1/8
K: D
V: 1
(F/G/A)F D2A | ded dAG | (F/G/A)F D2f | eEE E2G |\
(F/G/A)F D2A | ded dAG | FdF Edc | dAF D2 :|
|: g |\
(f/g/a)f d2f | aba afd | (f/g/a)f d>ef | eEE E2g |\
(f/g/a)f dfa | bag fed | (B/c/d)B AFB | AFD D2 :|
|: A |\
|: f |\
dfa dfa | afd afd | dfa def | eEE E2f |\
dfa dfa | bag fed | (B/c/d)B AFB | AFD D2 :|
V: 2 clef=bass middle=d
z |\
d3 d3 | d3 d3 | d3 d3 | e3 e3 |\
d3 d3 | d3 d3 | a3 A3 |
d3 d2 :|\
|:z |\
d3 d3 | d3 d3 | d3 d3 | e3 e3 |\
d3 d3 | g3 d3 | G3 A3 |\
d3 d2 :|\
|: z |\
d3 d3 | d3 d3 | d3 d3 | e3 e3 |\
d3 d3 | d3 d3 | g3 a3 |
d3 d2 :|\
|: z |\
d3 d3 | d3 d3 | d3 d3 | e3 e3 |\
d3 d3 | d3 d3 | g3 a3 | d3 d2 :|





